icons/desktop/16/dog-16.svg

<svg width="16" height="16" viewBox="0 0 16 16" fill="none" xmlns="http://www.w3.org/2000/svg">
<g clip-path="url(#clip0_22098_1088)">
<path fill-rule="evenodd" clip-rule="evenodd" d="M8.77734 0.554884C8.88539 0.155948 9.2973 -0.0814267 9.69727 0.0265638C10.0961 0.134582 10.3324 0.547613 10.2236 0.946486L10.209 1.0002H10.6904C11.6208 1.00034 12.4886 1.47022 12.9961 2.25117L13.1572 2.5002H15.251C15.6652 2.5002 16.001 2.83598 16.001 3.2502V5.2502C16.0008 6.7693 14.7701 8.0002 13.251 8.0002H12.5371L12.1631 9.46699L12.1621 9.46797C12.0539 9.89033 12 10.3252 12 10.7629V14.2131C11.9999 15.0814 11.3579 15.8281 10.4932 15.9494H10.4912C10.2046 15.9887 9.95274 16.0002 9.75 16.0002C9.49209 16.0002 9.25006 15.9817 9.02832 15.9514C8.16478 15.834 7.50012 15.1056 7.5 14.2131V12.5451C7.16625 12.5591 6.8319 12.5666 6.5 12.5666C6.16711 12.5666 5.83274 12.5591 5.5 12.5451V14.2131C5.49988 15.0814 4.85791 15.8271 3.99316 15.9484H3.99121C3.70455 15.9877 3.45275 16.0002 3.25 16.0002C2.9921 16.0002 2.75005 15.9817 2.52832 15.9514C1.66477 15.834 1.00012 15.1057 1 14.2131V7.78633C0.394781 7.2894 -0.000889003 6.53711 -0.000976562 5.66719V3.7502C-0.000930373 3.33602 0.334838 3.0002 0.749023 3.0002C1.16321 3.0002 1.49898 3.33602 1.49902 3.7502V5.66719C1.4992 6.4622 2.23384 7.05804 3.03027 6.88789L3.77734 6.71504C4.03056 6.6524 4.2883 6.58406 4.5498 6.50996L5.30859 6.28242C6.04719 6.04688 6.72476 5.79072 7.33887 5.53242C7.39689 5.50801 7.44953 5.45469 7.47266 5.36934L7.97168 3.52461C7.97203 3.52332 7.9723 3.522 7.97266 3.5207L8.77734 0.554884ZM7.23535 7.1916C6.54139 7.4603 5.78131 7.7204 4.95801 7.95332C4.40148 8.11099 3.86243 8.24354 3.34375 8.35469C3.05785 8.41578 2.77429 8.42911 2.5 8.40352V14.2131C2.50012 14.3339 2.58883 14.4459 2.73047 14.465C2.88872 14.4867 3.06392 14.5002 3.25 14.5002C3.3948 14.5002 3.57664 14.4916 3.78516 14.4631L3.82812 14.4523C3.92625 14.4188 3.99989 14.3229 4 14.2131V11.7688C3.99943 11.7434 3.99989 11.7174 4.00195 11.6916C4.03414 11.2789 4.39991 10.9754 4.80762 11.0021C5.91862 11.0891 7.06836 11.0901 8.19336 11.0021C8.6031 10.9843 8.96683 11.2789 8.99902 11.6916C9.00139 11.7221 9.00028 11.7526 8.99902 11.7824L9 11.7844V14.2131C9.00012 14.3339 9.08882 14.4459 9.23047 14.465C9.38871 14.4867 9.56394 14.5002 9.75 14.5002C9.8948 14.5002 10.0766 14.4916 10.2852 14.4631L10.3281 14.4533C10.4264 14.4198 10.4999 14.3229 10.5 14.2131V10.7629C10.5 10.216 10.566 9.67127 10.6982 9.13984L7.23535 7.1916ZM9.42285 3.90059C9.42151 3.90602 9.42139 3.91176 9.41992 3.91719L8.9209 5.76094C8.87025 5.94818 8.7877 6.12433 8.68066 6.28438L11.082 7.63399L11.2275 7.06465L11.2686 6.94551C11.3872 6.67829 11.654 6.5002 11.9541 6.5002H13.251C13.9417 6.5002 14.5008 5.94087 14.501 5.2502V4.0002H12.751C12.4974 4.00019 12.2605 3.8719 12.1221 3.65938L11.7383 3.06953C11.5079 2.71491 11.1137 2.50034 10.6904 2.5002H9.80273L9.42285 3.90059Z" fill="black"/>
</g>
<defs>
<clipPath id="clip0_22098_1088">
<rect width="16" height="16" fill="white"/>
</clipPath>
</defs>
</svg>

<!-- This Source Code Form is subject to the terms of the Mozilla Public
   - License, v. 2.0. If a copy of the MPL was not distributed with this
   - file, You can obtain one at http://mozilla.org/MPL/2.0/. -->
<svg xmlns="http://www.w3.org/2000/svg" width="16" height="16" fill="context-fill" fill-opacity="context-fill-opacity" viewBox="0 0 16 16">
    <path fill-rule="evenodd" d="M8.777.555a.75.75 0 1 1 1.446.392L10.21 1h.481c.93 0 1.799.47 2.306 1.251l.161.25h2.094a.75.75 0 0 1 .75.75v2A2.75 2.75 0 0 1 13.251 8h-.714l-.374 1.466v.001A5.2 5.2 0 0 0 12 10.763v3.45c0 .868-.642 1.615-1.507 1.736h-.002a5.5 5.5 0 0 1-1.463.002A1.76 1.76 0 0 1 7.5 14.213v-1.668a24 24 0 0 1-2 0v1.668c0 .868-.642 1.614-1.507 1.735h-.002a5.5 5.5 0 0 1-1.463.003A1.76 1.76 0 0 1 1 14.213V7.786A2.72 2.72 0 0 1-.001 5.667V3.75a.75.75 0 0 1 1.5 0v1.917c0 .795.735 1.391 1.531 1.22l.747-.172q.38-.093.773-.205l.759-.228a24 24 0 0 0 2.03-.75.24.24 0 0 0 .134-.163l.499-1.844V3.52zM7.235 7.192a25.6 25.6 0 0 1-3.891 1.163q-.431.088-.844.049v5.81c0 .12.089.232.23.251a3.8 3.8 0 0 0 1.055-.002l.043-.01a.26.26 0 0 0 .172-.24V11.77q0-.04.002-.077a.757.757 0 0 1 .806-.69c1.11.087 2.26.088 3.385 0a.76.76 0 0 1 .806.69 1 1 0 0 1 0 .09l.001.002v2.43c0 .12.089.232.23.251a3.8 3.8 0 0 0 1.055-.002l.043-.01a.26.26 0 0 0 .172-.24v-3.45c0-.547.066-1.092.198-1.623zM9.423 3.9l-.003.016-.5 1.844q-.076.282-.24.523l2.402 1.35.145-.57.042-.118a.75.75 0 0 1 .685-.446h1.297c.69 0 1.25-.56 1.25-1.25V4h-1.75a.75.75 0 0 1-.629-.34l-.384-.59a1.25 1.25 0 0 0-1.048-.57h-.887z" clip-rule="evenodd" />
</svg>
